src/assets/icons/add-shopping.svg

<svg xmlns="http://www.w3.org/2000/svg" xmlns:xlink="http://www.w3.org/1999/xlink" fill="none" version="1.1" width="22" height="22" viewBox="0 0 22 22"><g><g><ellipse cx="11" cy="11" rx="11" ry="11" fill="#40AE36" fill-opacity="1"/></g><g><path d="M6.501329999999999,5.985158190734864C6.43369,5.589530190734863,6.0907800000000005,5.3002298587348635,5.6894100000000005,5.300171010734863L4.524341,5.300000190734863L4.430027,5.308446790734863C4.185459,5.352837290734863,4,5.566893190734863,4,5.824265190734863C4,6.113850190734864,4.234756,6.348610190734863,4.524341,6.348610190734863L5.15405,6.348610190734863C5.35475,6.348610190734863,5.52623,6.493240190734864,5.56007,6.691060190734863L6.77942,13.818610190734864C6.8471,14.214240190734863,7.19006,14.503510190734863,7.59145,14.503510190734863L15.4003,14.503510190734863C15.8087,14.503510190734863,16.1555,14.204250190734863,16.2153,13.800200190734863L16.9911,8.553810190734863C16.997,8.513910190734864,16.9999,8.473630190734863,16.9999,8.433300190734863C16.9999,7.978310190734863,16.6311,7.609470190734863,16.176099999999998,7.609470190734863L7.12651,7.609470190734863C6.92581,7.609470190734863,6.75432,7.464810190734863,6.72049,7.266980190734863L6.501329999999999,5.985158190734864ZM15.44,8.658400190734863L7.44658,8.658400190734863C7.21909,8.658400190734863,7.03467,8.842820190734862,7.03467,9.070310190734864L7.040570000000001,9.139780190734864L7.72029,13.112630190734864C7.75413,13.310440190734862,7.92561,13.455070190734864,8.1263,13.455070190734864L14.8533,13.455070190734864C15.0576,13.455070190734864,15.231,13.305400190734863,15.2608,13.103340190734864L15.8475,9.130490190734864C15.8807,8.905440190734863,15.7252,8.696050190734862,15.5002,8.662820190734863L15.44,8.658400190734863ZM8.5001,17.200100190734865Q8.58874,17.200100190734865,8.67568,17.182800190734863Q8.76262,17.165500190734864,8.84451,17.131600190734865Q8.92641,17.097700190734862,9.00011,17.048400190734863Q9.07381,16.99920019073486,9.13649,16.93650019073486Q9.199169999999999,16.873800190734862,9.24842,16.800100190734863Q9.29767,16.726400190734864,9.33159,16.644500190734863Q9.36551,16.562600190734862,9.3828,16.475700190734862Q9.4001,16.388700190734863,9.4001,16.300100190734863Q9.4001,16.211500190734863,9.3828,16.124500190734864Q9.36551,16.037600190734864,9.33159,15.955700190734863Q9.29767,15.873800190734864,9.24842,15.800100190734863Q9.199169999999999,15.726400190734863,9.13649,15.663700190734863Q9.07381,15.601000190734863,9.00011,15.551800190734863Q8.92641,15.502500190734864,8.84451,15.468600190734863Q8.76262,15.434700190734864,8.67568,15.417400190734863Q8.58874,15.400100190734863,8.5001,15.400100190734863Q8.41146,15.400100190734863,8.32452,15.417400190734863Q8.237580000000001,15.434700190734864,8.15568,15.468600190734863Q8.073789999999999,15.502500190734864,8.00008,15.551800190734863Q7.92638,15.601000190734863,7.8637,15.663700190734863Q7.801019999999999,15.726400190734863,7.7517700000000005,15.800100190734863Q7.702529999999999,15.873800190734864,7.66861,15.955700190734863Q7.6346799999999995,16.037600190734864,7.61739,16.124500190734864Q7.600099999999999,16.211500190734863,7.600099999999999,16.300100190734863Q7.600099999999999,16.388700190734863,7.61739,16.475700190734862Q7.6346799999999995,16.562600190734862,7.66861,16.644500190734863Q7.702529999999999,16.726400190734864,7.7517700000000005,16.800100190734863Q7.801019999999999,16.873800190734862,7.8637,16.93650019073486Q7.92638,16.99920019073486,8.00008,17.048400190734863Q8.073789999999999,17.097700190734862,8.15568,17.131600190734865Q8.237580000000001,17.165500190734864,8.32452,17.182800190734863Q8.41146,17.200100190734865,8.5001,17.200100190734865ZM14.5001,17.200100190734865Q14.5887,17.200100190734865,14.6757,17.182800190734863Q14.7626,17.165500190734864,14.8445,17.131600190734865Q14.9264,17.097700190734862,15.0001,17.048400190734863Q15.0738,16.99920019073486,15.1365,16.93650019073486Q15.1992,16.873800190734862,15.2484,16.800100190734863Q15.2977,16.726400190734864,15.3316,16.644500190734863Q15.3655,16.562600190734862,15.3828,16.475700190734862Q15.4001,16.388700190734863,15.4001,16.300100190734863Q15.4001,16.211500190734863,15.3828,16.124500190734864Q15.3655,16.037600190734864,15.3316,15.955700190734863Q15.2977,15.873800190734864,15.2484,15.800100190734863Q15.1992,15.726400190734863,15.1365,15.663700190734863Q15.0738,15.601000190734863,15.0001,15.551800190734863Q14.9264,15.502500190734864,14.8445,15.468600190734863Q14.7626,15.434700190734864,14.6757,15.417400190734863Q14.5887,15.400100190734863,14.5001,15.400100190734863Q14.4115,15.400100190734863,14.3245,15.417400190734863Q14.2376,15.434700190734864,14.1557,15.468600190734863Q14.0738,15.502500190734864,14.0001,15.551800190734863Q13.92638,15.601000190734863,13.8637,15.663700190734863Q13.80102,15.726400190734863,13.75177,15.800100190734863Q13.70253,15.873800190734864,13.6686,15.955700190734863Q13.63468,16.037600190734864,13.61739,16.124500190734864Q13.6001,16.211500190734863,13.6001,16.300100190734863Q13.6001,16.388700190734863,13.61739,16.475700190734862Q13.63468,16.562600190734862,13.6686,16.644500190734863Q13.70253,16.726400190734864,13.75177,16.800100190734863Q13.80102,16.873800190734862,13.8637,16.93650019073486Q13.92638,16.99920019073486,14.0001,17.048400190734863Q14.0738,17.097700190734862,14.1557,17.131600190734865Q14.2376,17.165500190734864,14.3245,17.182800190734863Q14.4115,17.200100190734865,14.5001,17.200100190734865Z" fill-rule="evenodd" fill="#FFFFFF" fill-opacity="1"/></g></g></svg>

<svg xmlns="http://www.w3.org/2000/svg" width="22" height="22" fill="none"><circle cx="11" cy="11" r="11" fill="#40AE36"/><path fill="#FFF" fill-rule="evenodd" d="M6.501 5.985A.824.824 0 0 0 5.69 5.3H4.524l-.094.008a.524.524 0 0 0 .094 1.04h.63c.2 0 .372.145.406.343l1.22 7.128c.067.395.41.685.811.685h7.81c.408 0 .755-.3.814-.704l.776-5.246a.824.824 0 0 0-.815-.945h-9.05a.41.41 0 0 1-.406-.342zm8.939 2.673H7.447a.41.41 0 0 0-.412.412l.006.07.68 3.973a.41.41 0 0 0 .405.342h6.727c.205 0 .378-.15.408-.352l.587-3.973a.41.41 0 0 0-.348-.467zM8.5 17.2q.089 0 .176-.017t.169-.051q.081-.034.155-.084.074-.049.136-.111.063-.063.112-.137.05-.074.084-.155.034-.082.05-.17.018-.086.018-.175 0-.088-.017-.175t-.051-.17-.084-.155-.112-.136T9 15.552t-.155-.083-.17-.052T8.5 15.4t-.175.017q-.087.018-.17.052-.081.034-.155.083t-.136.112q-.063.062-.112.136-.05.074-.083.156-.034.082-.052.169T7.6 16.3t.017.176.052.169q.034.081.083.155t.112.137.136.111.156.084.169.05.175.018m6 0q.089 0 .176-.017t.168-.051.156-.084.136-.111.112-.137q.05-.074.084-.155.034-.082.05-.17.018-.086.018-.175 0-.088-.017-.175t-.051-.17-.084-.155-.111-.136-.137-.112-.155-.083-.17-.052-.175-.017-.175.017q-.087.018-.17.052-.081.034-.155.083t-.136.112q-.063.062-.112.136-.05.074-.083.156-.034.082-.052.169t-.017.175.017.176.052.169q.034.081.083.155t.112.137.136.111.156.084.168.05q.088.018.176.018"/></svg>
